X: 38
T:Haste to the Wedding
M:6/8
L:1/8
R:jig
K:D
A|"D"AFA Agf|"G"ede "D"fdB|AFA AFD|"A"EFE E2A|
"D"AFA Agf|"G"ede "D"fdB|A2g "A"faf|ded d2::
a|"D"afa afa|"G"bgb bgb|"D"afa agf|"A"gfg efg|
"D"a3 ~f3|"G"ede "D"fdB|A2g "A"faf|ded d2:|
